X: 17608
T: Hogmanay, The
R: jig
M: 6/8
K: Dmajor
|:e|fgf fgf|e2 d d2 e|fgf fed|c2 B B2 B|
cdc cdc|B2 A A2 ^G|1 Ace a2 g|g2 f f2:|2 Ace aec|d3 d2||
|:e|f3 e2 e|d3 c2 c|B2 B BcB|c2 B Ace|
ggg fff|e2 e d2 d|1 c2 c BcB|A3 A2:|2 c2 c cBc|d3 dc||
|:B|AAd d2 e|f3 f2 d|fff g2 f|
[1 e3 e2 e|cdc B2 B|cdA B2 B|cBc dcB|A2 G F2:|
[2 e3 A2 d|cde B2 B|c2 A B2 B|AAA f2 e|d3- d2||

